src/actions/32/view-list-details.svg

<svg viewBox="0 0 32 32" xmlns="http://www.w3.org/2000/svg">
 <defs>
  <style type="text/css">.ColorScheme-Text {
        color:#2e3440;
      }</style>
 </defs>
 <path class="ColorScheme-Text" d="m4 4v10h10v-10h-10zm1 1h8v8h-8v-8zm11 1v1h12v-1h-12zm0 5v1h12v-1h-12zm-12 7v10h10v-10h-10zm12 2v1h8v-1h-8zm0 5v1h8v-1h-8z" fill="currentColor"/>
</svg>

<svg xmlns="http://www.w3.org/2000/svg" viewBox="0 0 32 32">
  <defs
     id="defs3051">
    <style
       type="text/css"
       id="current-color-scheme">
      .ColorScheme-Text {
        color:#2e3440;
      }
      </style>
  </defs>
  <path
     style="fill:currentColor;fill-opacity:1;stroke:none" 
     d="M 4 4 L 4 14 L 14 14 L 14 4 L 4 4 z M 5 5 L 13 5 L 13 13 L 5 13 L 5 5 z M 16 6 L 16 7 L 28 7 L 28 6 L 16 6 z M 16 11 L 16 12 L 28 12 L 28 11 L 16 11 z M 4 18 L 4 28 L 14 28 L 14 18 L 4 18 z M 16 20 L 16 21 L 24 21 L 24 20 L 16 20 z M 16 25 L 16 26 L 24 26 L 24 25 L 16 25 z "
     id="path59" 
     class="ColorScheme-Text"
     />
</svg>
